X:75
T:Amelia
M:3/4
L:1/4
C:Bob McQuillen
S:The Waltz Book
R:Waltz
K:D
A,|"D"D3/2E/2D|DF3/2E/2|DF"G"B|"D"A2A|
"G"B3/2G/2B|"D"AFE|"Bm"DB3/2,B/2,|"G"B2,"A7"A,|
"D"D3/2E/2D|DF3/2E/2|DF"G"B|"D"A2A|
"G"B3/2c/2d|"Em"def|"A7"e3/2c/2B|1A2A:|2A2a||
"D"fa3/2f/2|afd|"A"e3/2c/2A|A2f/2e/2|
"Bm"d3/2B/2d|fdB|"F#m"c3/2A/2F|F2A|
"G"GB3/2G/2|"D"FAd|"A7"e3/2c/2A|"D"d2f|
"G"g3/2f/2e|"D"af"Bm"d|"G"de3/2"A7"c/2|1"D"d2a:|2"D"d2||
